X: 9335
T: Dancing At Lughnasa
R: reel
M: 4/4
K: Gmajor
|d3Bc3A|BdcA BGGG|dDDD DEFG|ADDD DFGA|
d3Bc3A|BdcA BG G/G/G|dDDD DEFG|Ac AF G2 A/B/c|
dGcG BGAG|BdcA BGGG|dDDD DEFG|ADDD DFGA|
d3Bc3A|BdcA BG G/G/G|dDDD DEFG|A/B/c AF G2 z2|

